communes/5765.svg

<?xml version="1.0" encoding="UTF-8"?>
<svg version="1.0" viewBox="0 0 603 763" xmlns="http://www.w3.org/2000/svg" xmlns:cc="http://creativecommons.org/ns#" xmlns:dc="http://purl.org/dc/elements/1.1/" xmlns:rdf="http://www.w3.org/1999/02/22-rdf-syntax-ns#" xmlns:xlink="http://www.w3.org/1999/xlink">
<metadata>
<rdf:RDF>
<cc:Work rdf:about="">
<dc:format>image/svg+xml</dc:format>
<dc:type rdf:resource="http://purl.org/dc/dcmitype/StillImage"/>
<dc:date>07-AUG-2006</dc:date>
<dc:creator>
<cc:Agent>
<dc:title>Jérôme BLUM (wagner51)</dc:title>
</cc:Agent>
</dc:creator>
<cc:license rdf:resource="http://creativecommons.org/licenses/GPL/2.0/"/>
<dc:coverage/>
<dc:description>Gabarit pour le Projet:Blasons de WIkipédia</dc:description>
<dc:subject>
<rdf:Bag>
<rdf:li>blason suisse modèle gabarit projet blasons</rdf:li>
</rdf:Bag>
</dc:subject>
<dc:language>fr</dc:language>
<dc:title>Gabrit d'un blason suisse</dc:title>
</cc:Work>
<cc:License rdf:about="http://creativecommons.org/licenses/GPL/2.0/">
<cc:permits rdf:resource="http://web.resource.org/cc/Reproduction"/>
<cc:permits rdf:resource="http://web.resource.org/cc/Distribution"/>
<cc:requires rdf:resource="http://web.resource.org/cc/Notice"/>
<cc:permits rdf:resource="http://web.resource.org/cc/DerivativeWorks"/>
<cc:requires rdf:resource="http://web.resource.org/cc/ShareAlike"/>
<cc:requires rdf:resource="http://web.resource.org/cc/SourceCode"/>
</cc:License>
</rdf:RDF>
</metadata>
<defs>
<radialGradient id="a" cx="858.04" cy="579.93" r="300" gradientTransform="matrix(1.215 1.5316e-24 1.4647e-23 1.2667 -839.19 -490.49)" gradientUnits="userSpaceOnUse">
<stop stop-color="#fff" stop-opacity=".31373" offset="0"/>
<stop stop-color="#fff" stop-opacity=".25098" offset=".19"/>
<stop stop-color="#6b6b6b" stop-opacity=".12549" offset=".6"/>
<stop stop-opacity=".12549" offset="1"/>
</radialGradient>
</defs>
<desc>Coat of Arms of Canton of Freiburg (Fribourg)</desc>
<g>
<path d="m1.5 1.5v458.87c0 166.31 134.31 301.13 300 301.13 165.69 0 300-134.82 300-301.13v-458.87h-600z" fill="#fff"/>
<g stroke="#000" stroke-linecap="round" stroke-linejoin="round" stroke-width="3">
<path d="m544.8 202.22h-125.18c-3.396 0-5.417 0.728-5.417 2.588 0 2.587 7.358 6.308 12.596 12.555 7.936 9.465 5.922 16.233 0.1 27.877s-125.4 249.39-125.4 249.39-119.58-237.74-125.4-249.39-7.835-18.413 0.1-27.877c5.237-6.247 12.596-9.967 12.596-12.555 0-1.86-2.022-2.588-5.418-2.588h-125.18c-6.145 0-8.41 2.264-8.41 5.661 0 3.396 3.721 7.116 12.777 11.321s21.186 16.981 39.947 55.15l198.99 391.55 198.99-391.55c18.762-38.168 30.892-50.945 39.948-55.15s12.776-7.925 12.776-11.321c1e-3 -3.397-2.264-5.661-8.409-5.661z" fill="#e20909"/>
<path d="m342.16 225.87c-16.496-16.497-37.117-29.597-40.658-45.851-3.542 16.254-24.162 29.354-40.658 45.851-16.497 16.496-22.319 28.626-22.319 41.483s9.461 37.602 33.235 37.602c20.863 0 29.742-22.804 29.742-22.804s8.878 22.804 29.741 22.804c23.774 0 33.235-24.745 33.235-37.602s-5.822-24.987-22.318-41.483z" fill="#fcef3c"/>
<path d="m325.08 114.6c-6.037 22.535-7.072 46.942-19.378 58.136 15.847-5.06 37.502 6.248 60.036 12.286s35.95 5.016 47.085-1.413c11.136-6.429 27.834-26.995 15.946-47.584-10.431-18.068-34.618-14.354-34.618-14.354s15.309-19.091 4.877-37.159c-11.887-20.589-38.046-16.41-49.182-9.981-11.134 6.427-18.728 17.535-24.766 40.069z" fill="#e20909"/>
<path d="m277.92 114.6c6.038 22.535 7.072 46.942 19.378 58.136-15.848-5.06-37.503 6.248-60.037 12.286-22.535 6.038-35.95 5.016-47.085-1.413-11.136-6.429-27.834-26.995-15.947-47.584 10.432-18.068 34.619-14.354 34.619-14.354s-15.309-19.091-4.877-37.159c11.887-20.589 38.046-16.41 49.182-9.981 11.135 6.427 18.729 17.535 24.767 40.069z" fill="#5ab532"/>
</g>
</g>
<g>
<path d="m1.5 1.5v458.87c0 166.31 134.31 301.13 300 301.13 165.69 0 300-134.82 300-301.13v-458.87h-600z" fill="url(#a)"/>
<path d="m1.5 1.5v458.87c0 166.31 134.31 301.13 300 301.13 165.69 0 300-134.82 300-301.13v-458.87h-600z" fill="none" stroke="#000" stroke-width="3"/>
</g>
</svg>

<?xml version="1.0" encoding="UTF-8" standalone="no"?>
<svg
   xmlns:dc="http://purl.org/dc/elements/1.1/"
   xmlns:cc="http://creativecommons.org/ns#"
   xmlns:rdf="http://www.w3.org/1999/02/22-rdf-syntax-ns#"
   xmlns:svg="http://www.w3.org/2000/svg"
   xmlns="http://www.w3.org/2000/svg"
   xmlns:xlink="http://www.w3.org/1999/xlink"
   xmlns:sodipodi="http://sodipodi.sourceforge.net/DTD/sodipodi-0.dtd"
   xmlns:inkscape="http://www.inkscape.org/namespaces/inkscape"
   height="763"
   width="603"
   version="1.0"
   id="svg20"
   sodipodi:version="0.32"
   inkscape:version="0.46"
   sodipodi:docname="Vaulion-coat_of_arms.svg"
   sodipodi:docbase="C:\Documents and Settings\Steve\Bureau\Blason Villages Suisse pour Wikipédia (par Delta-9)"
   inkscape:output_extension="org.inkscape.output.svg.inkscape">
  <metadata
     id="metadata31">
    <rdf:RDF>
      <cc:Work
         rdf:about="">
        <dc:format>image/svg+xml</dc:format>
        <dc:type
           rdf:resource="http://purl.org/dc/dcmitype/StillImage" />
        <dc:date>07-AUG-2006</dc:date>
        <dc:creator>
          <cc:Agent>
            <dc:title>Jérôme BLUM (wagner51)</dc:title>
          </cc:Agent>
        </dc:creator>
        <cc:license
           rdf:resource="http://creativecommons.org/licenses/GPL/2.0/" />
        <dc:coverage />
        <dc:description>Gabarit pour le Projet:Blasons de WIkipédia</dc:description>
        <dc:subject>
          <rdf:Bag>
            <rdf:li>blason suisse modèle gabarit projet blasons</rdf:li>
          </rdf:Bag>
        </dc:subject>
        <dc:language>fr</dc:language>
        <dc:title>Gabrit d'un blason suisse</dc:title>
      </cc:Work>
      <cc:License
         rdf:about="http://creativecommons.org/licenses/GPL/2.0/">
        <cc:permits
           rdf:resource="http://web.resource.org/cc/Reproduction" />
        <cc:permits
           rdf:resource="http://web.resource.org/cc/Distribution" />
        <cc:requires
           rdf:resource="http://web.resource.org/cc/Notice" />
        <cc:permits
           rdf:resource="http://web.resource.org/cc/DerivativeWorks" />
        <cc:requires
           rdf:resource="http://web.resource.org/cc/ShareAlike" />
        <cc:requires
           rdf:resource="http://web.resource.org/cc/SourceCode" />
      </cc:License>
    </rdf:RDF>
  </metadata>
  <defs
     id="defs29"><inkscape:perspective
   sodipodi:type="inkscape:persp3d"
   inkscape:vp_x="0 : 381.5 : 1"
   inkscape:vp_y="0 : 1000 : 0"
   inkscape:vp_z="603 : 381.5 : 1"
   inkscape:persp3d-origin="301.5 : 254.33333 : 1"
   id="perspective28" />
<linearGradient
   id="linearGradient2893">
  <stop
     style="stop-color:#ffffff;stop-opacity:0.3137255;"
     offset="0"
     id="stop2895" />
  <stop
     id="stop2897"
     offset="0.19"
     style="stop-color:#ffffff;stop-opacity:0.25098041;" />
  <stop
     style="stop-color:#6b6b6b;stop-opacity:0.1254902;"
     offset="0.60000002"
     id="stop2901" />
  <stop
     style="stop-color:#000000;stop-opacity:0.1254902;"
     offset="1"
     id="stop2899" />
</linearGradient>
<linearGradient
   id="linearGradient2955">
  <stop
     style="stop-color:white;stop-opacity:0;"
     offset="0"
     id="stop2965" />
  <stop
     style="stop-color:black;stop-opacity:0.64583331;"
     offset="1"
     id="stop2959" />
</linearGradient>
<radialGradient
   inkscape:collect="always"
   xlink:href="#linearGradient2893"
   id="radialGradient3236"
   gradientUnits="userSpaceOnUse"
   gradientTransform="matrix(1.215027,1.531577e-24,1.464684e-23,1.266667,-839.1924,-490.4894)"
   cx="858.04236"
   cy="579.93323"
   fx="858.04236"
   fy="579.93323"
   r="300" />
<inkscape:perspective
   id="perspective2482"
   inkscape:persp3d-origin="297.63751 : 280.63 : 1"
   inkscape:vp_z="595.27502 : 420.94501 : 1"
   inkscape:vp_y="0 : 1000 : 0"
   inkscape:vp_x="0 : 420.94501 : 1"
   sodipodi:type="inkscape:persp3d" />

	
	

	

		
		
		
	</defs>
  <sodipodi:namedview
     inkscape:window-height="968"
     inkscape:window-width="1280"
     inkscape:pageshadow="2"
     inkscape:pageopacity="0.0"
     guidetolerance="10.0"
     gridtolerance="10.0"
     objecttolerance="10.0"
     borderopacity="1.0"
     bordercolor="#666666"
     pagecolor="#ffffff"
     id="base"
     inkscape:zoom="1.0016741"
     inkscape:cx="308.85794"
     inkscape:cy="379.98886"
     inkscape:window-x="1280"
     inkscape:window-y="22"
     inkscape:current-layer="layer2"
     showgrid="false"
     showguides="true"
     inkscape:guide-bbox="true">
    <sodipodi:guide
       orientation="horizontal"
       position="761.5"
       id="guide1885" />
    <sodipodi:guide
       orientation="vertical"
       position="1.5"
       id="guide1887" />
    <sodipodi:guide
       orientation="horizontal"
       position="1.5"
       id="guide1889" />
    <sodipodi:guide
       orientation="vertical"
       position="601.5"
       id="guide1891" />
    <sodipodi:guide
       orientation="vertical"
       position="301.50081"
       id="guide1893" />
  </sodipodi:namedview>
  <desc
     id="desc22">Coat of Arms of Canton of Freiburg (Fribourg)</desc>
  <g
     inkscape:groupmode="layer"
     id="layer1"
     inkscape:label="Fond écu"
     style="opacity:1;display:inline"
     sodipodi:insensitive="true">
    <path
       id="path1899"
       d="M 1.5,1.49998 L 1.5,460.3679 C 1.5,626.6785 135.81456,761.5 301.49999,761.5 C 467.18543,761.5 601.5,626.6785 601.5,460.3679 L 601.5,1.49998 L 1.5,1.49998 z"
       style="fill:#ffffff;fill-opacity:1" />
  </g>
  <g
     inkscape:groupmode="layer"
     id="layer2"
     inkscape:label="Meubles"
     style="opacity:1;display:inline"
     sodipodi:insensitive="true">
    <g
       id="g2514">
      <path
         style="fill:#e20909;stroke:#000000;stroke-width:3;stroke-linecap:round;stroke-linejoin:round"
         d="M 544.804,202.222 L 419.625,202.222 C 416.229,202.222 414.208,202.95 414.208,204.81 C 414.208,207.397 421.566,211.118 426.804,217.365 C 434.74,226.83 432.726,233.598 426.904,245.242 C 421.082,256.886 301.499,494.628 301.499,494.628 C 301.499,494.628 181.917,256.886 176.094,245.242 C 170.271,233.598 168.259,226.829 176.194,217.365 C 181.431,211.118 188.79,207.398 188.79,204.81 C 188.79,202.95 186.768,202.222 183.372,202.222 L 58.194,202.222 C 52.049,202.222 49.784,204.486 49.784,207.883 C 49.784,211.279 53.505,214.999 62.561,219.204 C 71.617,223.409 83.747,236.185 102.508,274.354 L 301.499,665.901 L 500.489,274.354 C 519.251,236.186 531.381,223.409 540.437,219.204 C 549.493,214.999 553.213,211.279 553.213,207.883 C 553.214,204.486 550.949,202.222 544.804,202.222 z"
         id="path2467" />
      <path
         id="path2471"
         d="M 342.157,225.87 C 325.661,209.373 305.04,196.273 301.499,180.019 C 297.957,196.273 277.337,209.373 260.841,225.87 C 244.344,242.366 238.522,254.496 238.522,267.353 C 238.522,280.21 247.983,304.955 271.757,304.955 C 292.62,304.955 301.499,282.151 301.499,282.151 C 301.499,282.151 310.377,304.955 331.24,304.955 C 355.014,304.955 364.475,280.21 364.475,267.353 C 364.475,254.496 358.653,242.366 342.157,225.87 z"
         style="fill:#fcef3c;stroke:#000000;stroke-width:3;stroke-linecap:round;stroke-linejoin:round" />
      <path
         id="path2473"
         d="M 325.079,114.605 C 319.042,137.14 318.007,161.547 305.701,172.741 C 321.548,167.681 343.203,178.989 365.737,185.027 C 388.271,191.065 401.687,190.043 412.822,183.614 C 423.958,177.185 440.656,156.619 428.768,136.03 C 418.337,117.962 394.15,121.676 394.15,121.676 C 394.15,121.676 409.459,102.585 399.027,84.517 C 387.14,63.928 360.981,68.107 349.845,74.536 C 338.711,80.963 331.117,92.071 325.079,114.605 z"
         style="fill:#e20909;stroke:#000000;stroke-width:3;stroke-linecap:round;stroke-linejoin:round" />
      <path
         id="path2475"
         d="M 277.919,114.605 C 283.957,137.14 284.991,161.547 297.297,172.741 C 281.449,167.681 259.794,178.989 237.26,185.027 C 214.725,191.065 201.31,190.043 190.175,183.614 C 179.039,177.185 162.341,156.619 174.228,136.03 C 184.66,117.962 208.847,121.676 208.847,121.676 C 208.847,121.676 193.538,102.585 203.97,84.517 C 215.857,63.928 242.016,68.107 253.152,74.536 C 264.287,80.963 271.881,92.071 277.919,114.605 z"
         style="fill:#5ab532;stroke:#000000;stroke-width:3;stroke-linecap:round;stroke-linejoin:round" />
    </g>
  </g>
  <g
     inkscape:groupmode="layer"
     id="layer3"
     inkscape:label="Reflet final"
     style="display:inline"
     sodipodi:insensitive="true">
    <path
       style="fill:url(#radialGradient3236);fill-opacity:1"
       d="M 1.5,1.5 L 1.5,460.3679 C 1.5,626.67854 135.81454,761.5 301.49993,761.5 C 467.1854,761.5 601.5,626.67854 601.5,460.3679 L 601.5,1.5 L 1.5,1.5 z"
       id="path2346" />
  </g>
  <g
     inkscape:groupmode="layer"
     id="layer4"
     inkscape:label="Contour final"
     style="display:inline"
     sodipodi:insensitive="true">
    <path
       style="fill:none;fill-opacity:1;stroke:#000000;stroke-width:3;stroke-miterlimit:4;stroke-dasharray:none;stroke-opacity:1"
       d="M 1.5,1.5 L 1.5,460.36794 C 1.5,626.67854 135.81454,761.5 301.49993,761.5 C 467.1854,761.5 601.5,626.67854 601.5,460.36794 L 601.5,1.5 L 1.5,1.5 z "
       id="path3239" />
  </g>
</svg>
